X: 23213
T: Leaking Tap, The
R: jig
M: 6/8
K: Gmajor
G|DGG GEG|FDE =F2 e|=fef gfd|cA=F FDC|
DGG GFG|FDE =F2 e|=fed cA=F|AGF G2:|
d|gdB GBd|gfg a2 g|=fcA =FAc|=fef ag^f|
[1 gdB GBd|gfg a2 g|=fed cA=F|AGF G2:|
[2 g2 e fed|edB cde|=fed cA=F|AGF G2||

